assets/images/afrikons/direction-outline.svg

<svg viewBox="0 0 50.5 50" xmlns="http://www.w3.org/2000/svg"><g fill="none"><path d="m.25 0h50v50h-50z"/><path d="m25.25 13.46a.9.9 0 1 0 .91.9.9.9 0 0 0 -.91-.9z"/><path d="m23.06 40.48a1.17 1.17 0 0 1 1-.54 1.19 1.19 0 0 1 1 .61l.46.83.78-.48a1.21 1.21 0 0 1 .62-.18 1.19 1.19 0 0 1 1 .55l.44.69v-22.11h-23.65l-3.4 2.15 3.43 2.14h17.37v17.86zm2.19-20a1.74 1.74 0 1 1 -1.74 1.74 1.74 1.74 0 0 1 1.74-1.7z"/><path d="m28.39 12.54v-2.54a3.14 3.14 0 0 0 -6.28 0v6.86h23.65l3.43-2.14-3.43-2.15zm-3.14 3.55a1.74 1.74 0 1 1 1.75-1.73 1.74 1.74 0 0 1 -1.75 1.73z"/><ellipse cx="25.25" cy="22.26" rx=".91" ry=".9"/></g><path d="m25.25 12.62a1.74 1.74 0 1 0 1.75 1.74 1.74 1.74 0 0 0 -1.75-1.74zm.91 1.74a.91.91 0 1 1 -.91-.9.91.91 0 0 1 .91.9z"/><path d="m50.11 14-4-2.52h-16.63v-1.48a4.23 4.23 0 0 0 -8.48 0v8h25.07l4-2.53a.82.82 0 0 0 .39-.7.84.84 0 0 0 -.35-.77zm-4.35 2.85h-23.65v-6.85a3.14 3.14 0 0 1 6.28 0v2.57h17.37l3.43 2.15z"/><path d="m.39 21.31a.83.83 0 0 0 0 1.41l4 2.53h16.61v18.38a.59.59 0 0 0 .6.59.58.58 0 0 0 .5-.27l1.9-2.88c.05-.07.12-.09.17 0l.72 1.28a.61.61 0 0 0 .83.22l1.28-.76a.09.09 0 0 1 .08 0l1.3 2.19a.58.58 0 0 0 .5.27.59.59 0 0 0 .6-.59v-24.92h-25zm4.35 2.85-3.43-2.16 3.43-2.15h23.65v22.15l-.39-.73a1.19 1.19 0 0 0 -1-.55 1.21 1.21 0 0 0 -.62.18l-.78.48-.46-.83a1.19 1.19 0 0 0 -1-.61 1.17 1.17 0 0 0 -1 .54l-1.03 1.52v-17.84z"/><path d="m25.25 24a1.74 1.74 0 1 0 -1.74-1.73 1.74 1.74 0 0 0 1.74 1.73zm-.91-1.73a.91.91 0 1 1 .91.89.9.9 0 0 1 -.91-.9z"/></svg>

<svg xmlns="http://www.w3.org/2000/svg" viewBox="0 0 50.5 50"><defs><style>.cls-1{fill:none;}</style></defs><title>direction-outline</title><g id="Layer_2" data-name="Layer 2"><g id="Layer_1-2" data-name="Layer 1"><rect class="cls-1" x="0.25" width="50" height="50"/><path class="cls-1" d="M25.25,13.46a.9.9,0,1,0,.91.9A.9.9,0,0,0,25.25,13.46Z"/><path class="cls-1" d="M23.06,40.48a1.17,1.17,0,0,1,1-.54,1.19,1.19,0,0,1,1,.61l.46.83.78-.48a1.21,1.21,0,0,1,.62-.18,1.19,1.19,0,0,1,1,.55l.44.69V19.85l-23.65,0L1.31,22l3.43,2.14H22.11V42Zm2.19-20a1.74,1.74,0,1,1-1.74,1.74A1.74,1.74,0,0,1,25.25,20.52Z"/><path class="cls-1" d="M28.39,12.54V10a3.14,3.14,0,0,0-6.28,0v6.86H45.76l3.43-2.14-3.43-2.15Zm-3.14,3.55A1.74,1.74,0,1,1,27,14.36,1.74,1.74,0,0,1,25.25,16.09Z"/><ellipse class="cls-1" cx="25.25" cy="22.26" rx="0.91" ry="0.9"/><path d="M25.25,12.62A1.74,1.74,0,1,0,27,14.36,1.74,1.74,0,0,0,25.25,12.62Zm.91,1.74a.91.91,0,1,1-.91-.9A.91.91,0,0,1,26.16,14.36Z"/><path d="M50.11,14l-4-2.52H29.48V10A4.23,4.23,0,0,0,21,10v8H46.07l4-2.53a.82.82,0,0,0,.39-.7A.84.84,0,0,0,50.11,14Zm-4.35,2.85H22.11V10a3.14,3.14,0,0,1,6.28,0v2.57H45.76l3.43,2.15Z"/><path d="M.39,21.31a.83.83,0,0,0,0,1.41l4,2.53H21V43.63a.59.59,0,0,0,.6.59.58.58,0,0,0,.5-.27L24,41.07c.05-.07.12-.09.17,0l.72,1.28a.61.61,0,0,0,.83.22L27,41.81a.09.09,0,0,1,.08,0L28.38,44a.58.58,0,0,0,.5.27.59.59,0,0,0,.6-.59V18.76l-25,0Zm4.35,2.85L1.31,22l3.43-2.15,23.65,0V42L28,41.27a1.19,1.19,0,0,0-1-.55,1.21,1.21,0,0,0-.62.18l-.78.48-.46-.83a1.19,1.19,0,0,0-1-.61,1.17,1.17,0,0,0-1,.54L22.11,42V24.16Z"/><path d="M25.25,24a1.74,1.74,0,1,0-1.74-1.73A1.74,1.74,0,0,0,25.25,24Zm-.91-1.73a.91.91,0,1,1,.91.89A.9.9,0,0,1,24.34,22.26Z"/></g></g></svg>
